X: 14
T: Maudabawn Chapel
C: Ed Reavy
Z: John Gaffney
S: https://thesession.org/tunes/302#setting47491
R: reel
M: 4/4
L: 1/8
K: Gmaj
|:G3D EGDB|G3d eBBA|G3B dG (3Bcd|eaag ea a2|
gabg efge|dedc Bc d2|(3efg fa gedB|AcBA GEED:|
|:E2 BE dEBE|Ed^cB AFDF|~E3 F GFGB|AF (3FFF DFAF|
EBBA B3 B|BAGA B^cde|f2 af gfe^c|dBAF GEED:|

